X:3919
T:Maid of Anachar,The. JMT074
O:england
M:6/8
L:1/8
Q:80
S:J.Moore,Tyneside,1841.(51b)
R:Air
A:Northumbria
K:D
D/E/|F>ED F>ED|FAAA2d/e/|f>ed f>ed|f>edB2A/G/|
F>ED F>ED|FAAA2d/e/|fdB AFD|E>DED2:|
|:A/G/|FAB FAB/c/|dd/e/g/f/ dBA/G/|FAB FAd/e/|f>(e/d/c/) BA/B/c/A/|
dfa fdA|(B/A/B/c/d/c/) (B/A/G/F/E/D/)|{D}d2B/4c/4d/4B/4 AFD|GDG D2:|]
